public/twtgrey.svg

<svg fill="none" height="32" viewBox="0 0 33 32" width="33" xmlns="http://www.w3.org/2000/svg"><path d="m28.8 8.286c-.882.39067-1.8307.65133-2.8314.77467 1.0174-.604 1.8-1.56734 2.1674-2.70534-.952.558-2.0067.968-3.1287 1.184-.896-.95-2.174-1.53933-3.59-1.53933-2.72 0-4.9247 2.18533-4.9247 4.88 0 .3813.0447.7527.1287 1.1133-4.092-.2053-7.72133-2.15063-10.14933-5.10263-.42666.72133-.66666 1.566-.66666 2.45733 0 1.694.86733 3.1853 2.19 4.064-.80734-.0247-1.56734-.2493-2.23267-.6093v.0573c0 2.3673 1.698 4.3387 3.94867 4.7873-.41134.1127-.846.1754-1.294.1754-.318 0-.628-.036-.928-.09.62666 1.9346 2.44466 3.3486 4.59869 3.3906-1.6854 1.3067-3.80803 2.0894-6.11603 2.0894-.39866 0-.78866-.0227-1.174-.0694 2.18067 1.3807 4.77 2.19 7.54933 2.19 9.0567 0 14.0113-7.4373 14.0113-13.8893 0-.2113-.0066-.422-.0166-.63.9666-.6827 1.8-1.544 2.458-2.528z" fill="#949494"/></svg>

<svg width="33" height="32" viewBox="0 0 33 32" fill="none" xmlns="http://www.w3.org/2000/svg">
<path d="M28.8 8.286C27.918 8.67667 26.9693 8.93733 25.9686 9.06067C26.986 8.45667 27.7686 7.49333 28.136 6.35533C27.184 6.91333 26.1293 7.32333 25.0073 7.53933C24.1113 6.58933 22.8333 6 21.4173 6C18.6973 6 16.4926 8.18533 16.4926 10.88C16.4926 11.2613 16.5373 11.6327 16.6213 11.9933C12.5293 11.788 8.89997 9.84267 6.47197 6.89067C6.04531 7.612 5.80531 8.45667 5.80531 9.348C5.80531 11.042 6.67264 12.5333 7.99531 13.412C7.18797 13.3873 6.42797 13.1627 5.76264 12.8027C5.76264 12.8173 5.76264 12.8393 5.76264 12.86C5.76264 15.2273 7.46064 17.1987 9.71131 17.6473C9.29997 17.76 8.86531 17.8227 8.41731 17.8227C8.09931 17.8227 7.78931 17.7867 7.48931 17.7327C8.11597 19.6673 9.93397 21.0813 12.088 21.1233C10.4026 22.43 8.27997 23.2127 5.97197 23.2127C5.57331 23.2127 5.18331 23.19 4.79797 23.1433C6.97864 24.524 9.56797 25.3333 12.3473 25.3333C21.404 25.3333 26.3586 17.896 26.3586 11.444C26.3586 11.2327 26.352 11.022 26.342 10.814C27.3086 10.1313 28.142 9.27 28.8 8.286Z" fill="#949494"/>
</svg>
